src/assets/filled/Ui8.svg

<?xml version="1.0" encoding="UTF-8"?>
<svg width="24" height="24" viewBox="0 0 24 24" xmlns="http://www.w3.org/2000/svg">
 <path d="m18 6.3398c-0.14 0-0.58 0.03002-0.58 0.45002 0 0.29 0.22 0.45999 0.58 0.45999s0.58-0.16999 0.58-0.45999c0-0.33-0.3-0.45002-0.58-0.45002z"/>
 <path d="m18 5.5098c0.27 0 0.44-0.15001 0.44-0.38001 0-0.28-0.23-0.36999-0.44-0.36999s-0.44 0.09999-0.44 0.36999c0 0.23 0.17 0.38001 0.44 0.38001z"/>
 <path d="m18 2c-2.1 0-3.81 1.61-3.98 3.66-0.02 0.11-0.02 0.23-0.02 0.34 0 2.21 1.79 4 4 4 0.35 0 0.68-0.04 1-0.13 1.73-0.44 3-2.01 3-3.87 0-2.21-1.79-4-4-4zm0 6.2c-0.99 0-1.6-0.5-1.6-1.31 0-0.39 0.18-0.74001 0.5-0.98001-0.24-0.21-0.37-0.50001-0.37-0.83001 0-0.77 0.59-1.28 1.46-1.28s1.46 0.52 1.46 1.28c0 0.33-0.12 0.62001-0.37 0.83001 0.33 0.23 0.51 0.58001 0.51 0.98001 0.01 0.81-0.6 1.31-1.59 1.31z"/>
 <path d="m18 11.5c-1.15 0-2.22-0.35-3.1-0.96-0.07-0.05-0.16 0-0.16 0.08l0.01 4.82c0 0.42-0.34 0.75-0.75 0.75s-0.75-0.33-0.75-0.75v-4.94c0-0.33 0.22-0.60999 0.52-0.70999 0.08-0.03 0.13-0.14002 0.07-0.20002-0.83-0.96-1.34-2.21-1.34-3.58 0-0.17 0.01-0.35002 0.03-0.52002 0-0.04 0.01-0.06999 0.01-0.10999 0.03-0.23-0.09-0.45002-0.29-0.55002l-0.9-0.42999c-0.54-0.25-1.16-0.25-1.7 0l-6.5 3.06c-0.7 0.33-1.15 1.03-1.15 1.81v7.46c0 0.78 0.44999 1.48 1.15 1.81l6.5 3.06c0.54001 0.25 1.16 0.25 1.7 0l6.5-3.06c0.7-0.33 1.15-1.03 1.15-1.81v-4.71c0-0.31-0.29-0.55-0.6-0.53-0.13 0.01-0.26 0.01-0.4 0.01zm-6.25 2c0 1.52-1.23 2.75-2.75 2.75s-2.75-1.23-2.75-2.75v-3c0-0.41 0.34-0.75 0.75-0.75s0.75 0.34 0.75 0.75v3c0 0.69 0.56 1.25 1.25 1.25s1.25-0.56 1.25-1.25v-3c0-0.41 0.34-0.75 0.75-0.75s0.75 0.34 0.75 0.75v3z"/>
</svg>

<svg width="24" height="24" viewBox="0 0 24 24"  xmlns="http://www.w3.org/2000/svg">
<path d="M17.9999 6.33984C17.8599 6.33984 17.4199 6.36986 17.4199 6.78986C17.4199 7.07986 17.6399 7.24985 17.9999 7.24985C18.3599 7.24985 18.5799 7.07986 18.5799 6.78986C18.5799 6.45986 18.2799 6.33984 17.9999 6.33984Z" />
<path d="M18.0001 5.50977C18.2701 5.50977 18.4401 5.35976 18.4401 5.12976C18.4401 4.84976 18.2101 4.75977 18.0001 4.75977C17.7901 4.75977 17.5601 4.85976 17.5601 5.12976C17.5601 5.35976 17.7301 5.50977 18.0001 5.50977Z" />
<path d="M18 2C15.9 2 14.19 3.61 14.02 5.66C14 5.77 14 5.89 14 6C14 8.21 15.79 10 18 10C18.35 10 18.68 9.96 19 9.87C20.73 9.43 22 7.86 22 6C22 3.79 20.21 2 18 2ZM18 8.20001C17.01 8.20001 16.4 7.70001 16.4 6.89001C16.4 6.50001 16.58 6.15 16.9 5.91C16.66 5.7 16.53 5.40999 16.53 5.07999C16.53 4.30999 17.12 3.79999 17.99 3.79999C18.86 3.79999 19.45 4.31999 19.45 5.07999C19.45 5.40999 19.33 5.7 19.08 5.91C19.41 6.14 19.59 6.49001 19.59 6.89001C19.6 7.70001 18.99 8.20001 18 8.20001Z" />
<path d="M18 11.5004C16.85 11.5004 15.78 11.1504 14.9 10.5404C14.83 10.4904 14.74 10.5404 14.74 10.6204L14.75 15.4404C14.75 15.8604 14.41 16.1904 14 16.1904C13.59 16.1904 13.25 15.8604 13.25 15.4404V10.5004C13.25 10.1704 13.47 9.89041 13.77 9.79041C13.85 9.76041 13.9 9.65039 13.84 9.59039C13.01 8.63039 12.5 7.38041 12.5 6.01041C12.5 5.84041 12.51 5.66039 12.53 5.49039C12.53 5.45039 12.54 5.4204 12.54 5.3804C12.57 5.1504 12.45 4.93038 12.25 4.83038L11.35 4.40039C10.81 4.15039 10.19 4.15039 9.64999 4.40039L3.14999 7.46039C2.44999 7.79039 2 8.49039 2 9.27039V16.7304C2 17.5104 2.44999 18.2104 3.14999 18.5404L9.64999 21.6004C10.19 21.8504 10.81 21.8504 11.35 21.6004L17.85 18.5404C18.55 18.2104 19 17.5104 19 16.7304V12.0204C19 11.7104 18.71 11.4704 18.4 11.4904C18.27 11.5004 18.14 11.5004 18 11.5004ZM11.75 13.5004C11.75 15.0204 10.52 16.2504 9 16.2504C7.48 16.2504 6.25 15.0204 6.25 13.5004V10.5004C6.25 10.0904 6.59 9.7504 7 9.7504C7.41 9.7504 7.75 10.0904 7.75 10.5004V13.5004C7.75 14.1904 8.31 14.7504 9 14.7504C9.69 14.7504 10.25 14.1904 10.25 13.5004V10.5004C10.25 10.0904 10.59 9.7504 11 9.7504C11.41 9.7504 11.75 10.0904 11.75 10.5004V13.5004Z" />
</svg>
